icons/1_Primary/AnonAddy.svg

<svg xmlns="http://www.w3.org/2000/svg" width="1024" height="1024" fill="none">
   <g clip-path="url(#a)">
      <path fill="#96DFD3" d="M512 1024c282.77 0 512-229.23 512-512S794.77 0 512 0 0 229.23 0 512s229.23 512 512 512Z"/>
      <path fill="#fff" d="M282.13 496.859a15.258 15.258 0 0 1-17.14-18.817 15.257 15.257 0 0 1 5.37-8.263l42.28-33a15.22 15.22 0 0 1 11.345-3.382 15.232 15.232 0 0 1 11.441 22.899 15.238 15.238 0 0 1-4.046 4.483l-42.28 33a13.725 13.725 0 0 1-6.97 3.08Zm-34.06 29.26 4-3.09a15.232 15.232 0 0 0-7.625-26.847 15.224 15.224 0 0 0-11.115 2.847l-4 3.09a15.26 15.26 0 0 0-2.63 21.37 15.44 15.44 0 0 0 14.4 5.6 14.573 14.573 0 0 0 6.97-2.98v.01Zm-5.49 86.74 92.8-72.57a15.238 15.238 0 0 0 6.032-10.187 15.242 15.242 0 0 0-3.087-11.429 15.217 15.217 0 0 0-10.34-5.766 15.232 15.232 0 0 0-11.345 3.382l-92.8 72.46a15.26 15.26 0 0 0 11.77 27.09 15.574 15.574 0 0 0 6.97-2.99v.01Zm132.23-103 14.74-11.54a15.238 15.238 0 0 0 6.032-10.187 15.242 15.242 0 0 0-3.087-11.429 15.217 15.217 0 0 0-10.34-5.766 15.232 15.232 0 0 0-11.345 3.382l-14.74 11.54a15.261 15.261 0 0 0 11.77 27.14 17.237 17.237 0 0 0 6.97-3.11v-.03Zm-8.11 88.57 76.11-59.43a15.238 15.238 0 0 0 6.032-10.187 15.242 15.242 0 0 0-3.087-11.429 15.217 15.217 0 0 0-10.34-5.766 15.232 15.232 0 0 0-11.345 3.382L348 574.459a15.257 15.257 0 0 0-4.57 18.084 15.263 15.263 0 0 0 16.34 8.996 13.724 13.724 0 0 0 6.92-3.09l.01-.02Zm-41.6 33 5.37-4.23a15.238 15.238 0 0 0 6.032-10.187 15.243 15.243 0 0 0-3.087-11.429 15.217 15.217 0 0 0-10.34-5.766 15.232 15.232 0 0 0-11.345 3.382l-5.37 4.23a15.26 15.26 0 0 0 11.77 27.09 14.627 14.627 0 0 0 6.97-3.04v-.05ZM730 366.119v248.79a71.21 71.21 0 0 1-71.2 71.2H334.92a15.31 15.31 0 0 1-15.31-15.31 15.073 15.073 0 0 1 9.312-13.947 15.07 15.07 0 0 1 5.778-1.143h324.22a40.822 40.822 0 0 0 40.8-40.8v-230.74l-171.54 133.49c-6.86 5.26-18.4 7.89-30.28.23-33.15-22.89-168.35-127.89-168.35-127.89a29.398 29.398 0 0 1-9.94-14.29 28.296 28.296 0 0 1 0-17.14c3.89-12.57 16.11-20.69 29.26-20.69h352.9a28.139 28.139 0 0 1 28.23 28.24Zm-271.76 97.48-.46-.69-.11.8.57-.11Zm212.34-95.31H355.72l157.14 122.85 157.72-122.85Z"/>
   </g>
   <defs>
      <clipPath id="a">
         <path fill="#fff" d="M0 0h1024v1024H0z"/>
      </clipPath>
   </defs>
</svg>

<svg width="1024" height="1024" viewBox="0 0 1024 1024" fill="none" xmlns="http://www.w3.org/2000/svg">
<g clip-path="url(#clip0_2_1479)">
<path d="M512 1024C794.77 1024 1024 794.77 1024 512C1024 229.23 794.77 0 512 0C229.23 0 0 229.23 0 512C0 794.77 229.23 1024 512 1024Z" fill="#96DFD3"/>
<path d="M282.13 496.859C278.795 497.378 275.382 496.776 272.425 495.148C269.469 493.52 267.135 490.958 265.79 487.863C264.445 484.768 264.163 481.314 264.99 478.042C265.817 474.769 267.705 471.864 270.36 469.779L312.64 436.779C314.209 435.487 316.022 434.521 317.97 433.941C319.919 433.36 321.964 433.175 323.985 433.397C326.006 433.619 327.962 434.244 329.738 435.234C331.514 436.224 333.074 437.56 334.325 439.163C335.576 440.765 336.494 442.602 337.024 444.565C337.554 446.528 337.686 448.577 337.412 450.592C337.137 452.607 336.462 454.546 335.426 456.296C334.39 458.045 333.014 459.57 331.38 460.779L289.1 493.779C287.114 495.443 284.697 496.511 282.13 496.859ZM248.07 526.119L252.07 523.029C255.135 520.505 257.093 516.883 257.527 512.936C257.961 508.989 256.836 505.029 254.392 501.899C251.949 498.769 248.379 496.718 244.445 496.182C240.51 495.645 236.522 496.667 233.33 499.029L229.33 502.119C226.155 504.61 224.096 508.256 223.603 512.261C223.11 516.266 224.224 520.303 226.7 523.489C228.397 525.605 230.621 527.237 233.149 528.22C235.677 529.203 238.419 529.503 241.1 529.089C243.645 528.728 246.05 527.7 248.07 526.109V526.119ZM242.58 612.859L335.38 540.289C337.014 539.08 338.39 537.555 339.426 535.806C340.462 534.056 341.137 532.117 341.412 530.102C341.686 528.087 341.554 526.038 341.024 524.075C340.494 522.112 339.576 520.275 338.325 518.673C337.074 517.07 335.514 515.734 333.738 514.744C331.962 513.754 330.006 513.129 327.985 512.907C325.964 512.685 323.919 512.87 321.97 513.451C320.022 514.031 318.209 514.997 316.64 516.289L223.84 588.749C221.18 590.832 219.287 593.739 218.457 597.013C217.627 600.288 217.907 603.745 219.253 606.844C220.599 609.942 222.936 612.506 225.896 614.134C228.856 615.762 232.272 616.362 235.61 615.839C238.144 615.432 240.538 614.405 242.58 612.849V612.859ZM374.81 509.859L389.55 498.319C391.184 497.11 392.56 495.585 393.596 493.836C394.632 492.086 395.307 490.147 395.582 488.132C395.856 486.117 395.724 484.068 395.194 482.105C394.664 480.142 393.746 478.305 392.495 476.703C391.244 475.1 389.684 473.764 387.908 472.774C386.132 471.784 384.176 471.159 382.155 470.937C380.134 470.715 378.089 470.9 376.14 471.481C374.192 472.061 372.379 473.027 370.81 474.319L356.07 485.859C353.384 487.934 351.466 490.845 350.62 494.132C349.774 497.418 350.048 500.893 351.398 504.007C352.749 507.121 355.098 509.696 358.076 511.324C361.054 512.953 364.49 513.542 367.84 512.999C370.366 512.496 372.748 511.434 374.81 509.889V509.859ZM366.7 598.429L442.81 538.999C444.444 537.79 445.82 536.265 446.856 534.516C447.892 532.766 448.567 530.827 448.842 528.812C449.116 526.797 448.984 524.748 448.454 522.785C447.924 520.822 447.006 518.985 445.755 517.383C444.504 515.78 442.944 514.444 441.168 513.454C439.392 512.464 437.436 511.839 435.415 511.617C433.394 511.395 431.349 511.58 429.4 512.161C427.452 512.741 425.639 513.707 424.07 514.999L348 574.459C345.345 576.544 343.457 579.449 342.63 582.722C341.803 585.994 342.085 589.448 343.43 592.543C344.775 595.638 347.109 598.2 350.065 599.828C353.022 601.456 356.435 602.058 359.77 601.539C362.321 601.179 364.719 600.108 366.69 598.449L366.7 598.429ZM325.1 631.429L330.47 627.199C332.104 625.99 333.48 624.465 334.516 622.716C335.552 620.966 336.227 619.027 336.502 617.012C336.776 614.998 336.644 612.948 336.114 610.985C335.584 609.022 334.666 607.185 333.415 605.583C332.164 603.98 330.604 602.644 328.828 601.654C327.052 600.664 325.096 600.039 323.075 599.817C321.054 599.595 319.009 599.78 317.06 600.361C315.112 600.941 313.299 601.907 311.73 603.199L306.36 607.429C303.7 609.512 301.807 612.419 300.977 615.693C300.147 618.968 300.427 622.425 301.773 625.524C303.119 628.622 305.456 631.186 308.416 632.814C311.376 634.442 314.792 635.042 318.13 634.519C320.681 634.138 323.085 633.089 325.1 631.479V631.429ZM730 366.119V614.909C729.997 633.792 722.495 651.9 709.143 665.252C695.791 678.604 677.682 686.106 658.8 686.109H334.92C330.859 686.109 326.965 684.496 324.094 681.625C321.223 678.754 319.61 674.859 319.61 670.799C319.607 668.817 319.996 666.853 320.753 665.021C321.51 663.189 322.622 661.525 324.024 660.123C325.425 658.721 327.09 657.61 328.922 656.852C330.754 656.095 332.717 655.706 334.7 655.709H658.92C669.739 655.704 680.113 651.403 687.764 643.753C695.414 636.103 699.714 625.728 699.72 614.909V384.169L528.18 517.659C521.32 522.919 509.78 525.549 497.9 517.889C464.75 494.999 329.55 389.999 329.55 389.999C324.87 386.348 321.405 381.367 319.61 375.709C317.838 370.133 317.838 364.145 319.61 358.569C323.5 345.999 335.72 337.879 348.87 337.879H701.77C705.481 337.867 709.158 338.59 712.589 340.005C716.02 341.42 719.137 343.5 721.761 346.124C724.385 348.749 726.464 351.867 727.878 355.299C729.292 358.73 730.013 362.408 730 366.119ZM458.24 463.599L457.78 462.909L457.67 463.709L458.24 463.599ZM670.58 368.289H355.72L512.86 491.139L670.58 368.289Z" fill="white"/>
</g>
<defs>
<clipPath id="clip0_2_1479">
<rect width="1024" height="1024" fill="white"/>
</clipPath>
</defs>
</svg>
